X:1
T:Deux vrays amantz
T:Pierre Certon
T:Source : Livre XII de 30 chansons nouvelles à 4 parties---Paris---P.Attaingnant---1543. Editor : André Vierendeels (11/06/18) Notes : Original clefs : G2, C2, C3, C4 Original note values have been halved Editorial accidentals above the staff Square bracket indicates ligature
T:Deux vrays amantz
T:©
T:©
T:©
T:©
C:Pierre Certon
Z:©
%%score [ 1 2 3 4 ]
L:1/8
Q:1/4=120
M:2/2
K:C
V:1 treble nm="Soprano" snm="S"
V:2 treble nm="Alto" snm="A"
V:3 treble-8 nm="Tenor" snm="T"
V:4 bass nm="Bass" snm="B"
V:1
 G8 | A3 G AB c2- | c2 BA B4 | z2 B2 B2 B2 | c2 d2 e4 | c2 f2 f2 e2 | cBcd e2 d2- | dc c4 B2 | %8
w: Deux|vrays _ _ _ a-|* * * mantz|n'ont qu'ung vou-|loir en- sem-|ble, n'ont qu'ung vou-|loir _ _ _ _ en-|* * sem- *|
 c2 G2 A2 c2 | B4 z2 A2 | c2 c2 B2 B2 | cBAG A4 | G4 z2 G2 | c4 B3 A | B2 c4 BA | G2 G2 c2 c2 | %16
w: ble, et par rai-|son, de|rai- son se con-|ten- * * * *|tent, di-|sant,: ain- *||sy pour bien fi-|
 A2 A2 G4- | G4 z4 | z2 G2 c4 | A4 B2 B2 | c2 c2 B2 A2- | A2 G2 F4 |[M:2/4] E4 |:[M:2/2] z4 G4- | %24
w: nir nos iours,|_|hon- neur|vault mieulx que|tri- stes- se'à _|_ _ tous|iours,|qui|
 G4 A3 G | AB c4 BA | B4 z2 B2 | B2 B2 c2 d2 | e4 c2 f2 | f2 e2 cBcd | e2 d3 c c2- | %31
w: _ en _|_ _ la _ _|fin, pert|l'a- m'et corps en-|sem- ble, pert|l'a- m'et corps _ _ _|_ en- * sem-|
 c2 B2 !fermata!c4 :| %32
w: * * ble.|
V:2
 E8 | E4 F4 | G8 | z2 G2 G4 | F4 E2 G2 | A2 A2 F2 G2 | A4 G2 A2- | A2 F2 G4 | E2 E2 F2 E2 | %9
w: Deux|vrays a-|mantz|n'ont qu'ung|vou- loir en-|sem- * * *|||ble, et par rai-|
 G4 z2 C2 | G6 G2 | G2 G2 F3 E | D4 E4 | E4 D3 C | B,2 G,2 A,4 | B,2 G,2 G2 G2 | F4 E4 | D2 D2 G4 | %18
w: son, de|rai- son|se con- ten- *|* tent,|di- sant: _|_ _ ain-|sy, pour bien fi-|nir nos|iours, hon- neur|
 E4 C2 E2 | D2 C2 B,G, G2- | G2 F2 G2 A,2 | C2 C2 D2 D2 |[M:2/4] G,4 |:[M:2/2] z4 E4- | E4 E4 | %25
w: vault mieulx, hon-|neur vault _ _ _|_ _ mieulx que|tri- stes- seà tous-|iours,|qui|_ en|
 F4 G4- | G4 z2 G2 | G4 F4 | E2 G2 A2 A2 | F2 G2 A4 | G2 A4 F2 | G4 !fermata!E4 :| %32
w: la fin|_ pert|l'a- m'et|corps, pert l'a- m'et|corps, pert l'a-|m'et corps en-|sem- ble.|
V:3
 B8 | c4 c4 | d3 c d2 e2- | e2 dc d4 | z4 z2 c2 | c2 c2 d2 e2 | f4 e2 f2- | fedc d4 | c4 z2 c2 | %9
w: Deux|vrays a-|mantz _ _ _|_ _ _ _|n'ont|qu'ung vou- loir en-|sem- * *||ble, et|
 d4 f4 | e4 z2 d2 | e2 e2 dc c2- | c2 B2 c4 | z2 G2 GABc | d2 e4 d2 | e2 e2 e2 e2 | d3 c BA c2- | %17
w: par rai-|son, de|rai- son se _ con-|* ten- tent,|di- sant,: _ _ _|_ ain- sy|pour bien fi- nir|_ _ _ _ nos|
 c2 BA B4 | z4 z2 c2 | f4 d4 | c2 A2 B2 d2- | dc c4 B2 |[M:2/4] c4 |:[M:2/2] z4 B4- | B4 c4 | %25
w: _ _ _ iours,|hon-|neur vault|mieulx que tri- stes-|* * se'à tous-|iours,|qui|_ en|
 c4 d3 c | d2 e4 dc | d4 z4 | z2 c2 c2 c2 | d2 e2 f4 | e2 f3 e dc | d4 !fermata!c4 :| %32
w: la fin _|_ _ _ _||pert l'a- m'et|corps en sem-||* ble.|
V:4
 E,8 | A,4 A,4 | G,8 | z2 G,2 G,2 G,2 | A,2 B,2 C3 B, | A,G,F,E, D,2 C,2 | F,G,A,B, C2 F,2 | %7
w: Deux|vrays a-|mantz|n'ont qu'ung vou-|loir en- sem- *|||
 A,4 G,4 | z2 C2 A,2 A,2 | G,3 F, D,2 F,2 | C,D,E,F, G,2 G,2 | C,2 C,2 F,2 F,2 | G,4 C,2 C,2 | %13
w: * ble,|et par ra-|son, _ _ _|_ _ _ _ _ de|rai- son se con-|ten- tent,, di-|
 C,D,E,F, G,4- | G,2 E,2 F,4 | E,2 E,2 C,2 C,2 | D,2 D,2 E,3 D,/C,/ | G,4 z2 G,2 | C4 A,4 | %19
w: sant, : _ _ _|_ ain- sy|pour bien fi- nir|nos iours, _ _ _|_ hon-|neur vault|
 F,2 F,2 G,4 | A,4 G,2 F,2 | F,2 E,2 D,2 D,2 |[M:2/4] C,4 |:[M:2/2] z4 E,4- | E,4 A,4 | A,4 G,4- | %26
w: mieulx, hon- neur|vault mieulx que|tri- stes- se'à tous-|iours,|qui|_ en|la fin|
 G,4 z2 G,2 | G,2 G,2 A,2 B,2 | C3 B, A,G,F,E, | D,2 C,2 F,G,A,B, | C2 F,2 A,4 | %31
w: _ pert|l'a- m'et corps en|sem- * * * * *|||
 G,4 !fermata!C,4 :| %32
w: * ble.|

